X:101
M:6/8
L:1/8
Q:3/8=100
K:D
dA(f e)cA|BF(d c)AF|GD(B A)dD|{F}E3D3:|
|:(g2 e)(f2 d)|(c2 A)(d2 f)|(g2 e)(f2 d)|cee e2 e|\
(g2 e)(f2 d)|(c2 A)(d2 f)|(g2 e)(f2 d)|cee e2 A|
dA(f e)cA|BF(d c)AF|GD(B A)FD|CEE E2 A|\
dA(f e)cA|BF(d c)AF|GD(B A)dD|{F}E3D3:|

